24x24/apps/eu.tiliado.NuvolaAppJango.svg

<svg height="24" width="24" xmlns="http://www.w3.org/2000/svg"><rect fill="#19416f" height="20" rx="1" width="20" x="2" y="2"/><path d="m12.5 4.5a1.5 1.5 0 0 0 -1.5 1.5 1.5 1.5 0 0 0 1.5 1.5 1.5 1.5 0 0 0 1.5-1.5 1.5 1.5 0 0 0 -1.5-1.5zm-1.5 4c-.554 0-1 .446-1 1s.446 1 1 1h1v6.111c0 .486-.002.844-.027 1.112a1.5 1.5 0 0 0 -1.473-1.223 1.5 1.5 0 0 0 -1.5 1.5 1.5 1.5 0 0 0 1.5 1.5 1.5 1.5 0 0 0 .105-.004c2.41 0 3.395-.043 3.395-2.885v-8.111z" opacity=".2"/><path d="m3 2c-.554 0-1 .446-1 1v.5c0-.554.446-1 1-1h18c.554 0 1 .446 1 1v-.5c0-.554-.446-1-1-1z" fill="#f4f4f7" opacity=".1"/><path d="m3 22.5c-.554 0-1-.446-1-1v-.5c0 .554.446 1 1 1h18c.554 0 1-.446 1-1v.5c0 .554-.446 1-1 1z" opacity=".2"/><path d="m12.5 4a1.5 1.5 0 0 0 -1.5 1.5 1.5 1.5 0 0 0 1.5 1.5 1.5 1.5 0 0 0 1.5-1.5 1.5 1.5 0 0 0 -1.5-1.5zm-1.5 4c-.554 0-1 .446-1 1s.446 1 1 1h1v6.111c0 .486-.002.844-.027 1.112a1.5 1.5 0 0 0 -1.473-1.223 1.5 1.5 0 0 0 -1.5 1.5 1.5 1.5 0 0 0 1.5 1.5 1.5 1.5 0 0 0 .105-.004c2.41 0 3.395-.043 3.395-2.885v-8.111z" fill="#f4f4f7"/></svg>

<svg height="24" width="24" xmlns="http://www.w3.org/2000/svg">
    <rect fill="#19416f" height="20" rx="1" width="20" x="2" y="2"/>
    <path d="M12.5 4.5A1.5 1.5 0 0 0 11 6a1.5 1.5 0 0 0 1.5 1.5A1.5 1.5 0 0 0 14 6a1.5 1.5 0 0 0-1.5-1.5zm-1.5 4c-.554 0-1 .446-1 1s.446 1 1 1h1v6.111c0 .486-.002.844-.027 1.112A1.5 1.5 0 0 0 10.5 16.5 1.5 1.5 0 0 0 9 18a1.5 1.5 0 0 0 1.5 1.5 1.5 1.5 0 0 0 .105-.004c2.41 0 3.395-.043 3.395-2.885V8.5z" opacity=".2"/>
    <path d="M3 2c-.554 0-1 .446-1 1v.5c0-.554.446-1 1-1h18c.554 0 1 .446 1 1V3c0-.554-.446-1-1-1z" fill="#f4f4f7" opacity=".1"/>
    <path d="M3 22.5c-.554 0-1-.446-1-1V21c0 .554.446 1 1 1h18c.554 0 1-.446 1-1v.5c0 .554-.446 1-1 1z" opacity=".2"/>
    <path d="M12.5 4A1.5 1.5 0 0 0 11 5.5 1.5 1.5 0 0 0 12.5 7 1.5 1.5 0 0 0 14 5.5 1.5 1.5 0 0 0 12.5 4zM11 8c-.554 0-1 .446-1 1s.446 1 1 1h1v6.111c0 .486-.002.844-.027 1.112A1.5 1.5 0 0 0 10.5 16 1.5 1.5 0 0 0 9 17.5a1.5 1.5 0 0 0 1.5 1.5 1.5 1.5 0 0 0 .105-.004c2.41 0 3.395-.043 3.395-2.885V8z" fill="#f4f4f7"/>
</svg>
